symbols-de/shields/motorway_6x4_z16.svg

<?xml version="1.0" encoding="UTF-8" standalone="no"?>
<svg
   xmlns:dc="http://purl.org/dc/elements/1.1/"
   xmlns:cc="http://creativecommons.org/ns#"
   xmlns:rdf="http://www.w3.org/1999/02/22-rdf-syntax-ns#"
   xmlns:svg="http://www.w3.org/2000/svg"
   xmlns="http://www.w3.org/2000/svg"
   xmlns:sodipodi="http://sodipodi.sourceforge.net/DTD/sodipodi-0.dtd"
   xmlns:inkscape="http://www.inkscape.org/namespaces/inkscape"
   width="100%"
   height="100%"
   viewBox="0 0 48.0 46.0"
   id="svg2"
   version="1.1"
   inkscape:version="0.91 r13725"
   sodipodi:docname="autobahn_6x4_z16.svg">
  <metadata
     id="metadata9">
    <rdf:RDF>
      <cc:Work
         rdf:about="">
        <dc:format>image/svg+xml</dc:format>
        <dc:type
           rdf:resource="http://purl.org/dc/dcmitype/StillImage" />
        <dc:title></dc:title>
      </cc:Work>
    </rdf:RDF>
  </metadata>
  <defs
     id="defs7" />
  <sodipodi:namedview
     pagecolor="#ffffff"
     bordercolor="#666666"
     borderopacity="1"
     objecttolerance="10"
     gridtolerance="10"
     guidetolerance="10"
     inkscape:pageopacity="0"
     inkscape:pageshadow="2"
     inkscape:window-width="1102"
     inkscape:window-height="785"
     id="namedview5"
     showgrid="false"
     inkscape:zoom="5.1304348"
     inkscape:cx="24"
     inkscape:cy="23.097458"
     inkscape:window-x="214"
     inkscape:window-y="170"
     inkscape:window-maximized="0"
     inkscape:current-layer="svg2" />
  <path
     style="fill:#365eaf;fill-opacity:1;stroke:#0528a2;stroke-width:1;stroke-miterlimit:4;stroke-dasharray:none;stroke-opacity:1"
     d="m 23.999999,0.500009 c -0.336916,0 -0.504882,0.0036 -0.504882,0.01286 L 1.259089,2.455036 C 0.753713,2.548166 0.5,2.688939 0.5,2.875195 c 0,13.416539 0,26.833078 0,40.249616 0,0.186256 0.253713,0.327035 0.759089,0.420161 l 22.236028,1.942168 c 0,0.0093 0.16797,0.01286 0.504882,0.01286 0.336918,0 0.504884,-0.0036 0.504884,-0.01286 l 22.236025,-1.942168 c 0.505378,-0.09313 0.759093,-0.233905 0.759093,-0.420161 0,-13.416537 0,-26.833078 0,-40.249616 0,-0.186256 -0.253715,-0.327034 -0.759093,-0.420159 L 24.504883,0.51287 c 0,-0.0093 -0.167972,-0.01286 -0.504884,-0.01286 z"
     id="path6"
     inkscape:connector-curvature="0"
     sodipodi:nodetypes="sccccccsccccccs" />
</svg>

<?xml version="1.0" encoding="UTF-8"?>
<svg xmlns="http://www.w3.org/2000/svg" xmlns:xlink="http://www.w3.org/1999/xlink" width="46pt" height="62pt" viewBox="0 0 46 62" version="1.1">
<g id="surface1">
<path style="fill-rule:nonzero;fill:rgb(21.176471%,36.862745%,68.627451%);fill-opacity:1;stroke-width:1;stroke-linecap:butt;stroke-linejoin:miter;stroke:rgb(1.960784%,15.686275%,63.529412%);stroke-opacity:1;stroke-miterlimit:4;" d="M 24 0.501386 C 23.661685 0.501386 23.494565 0.504284 23.494565 0.512979 L 1.259511 2.454763 C 0.754076 2.547505 0.501359 2.689516 0.501359 2.875 C 0.501359 16.290701 0.501359 29.709299 0.501359 43.125 C 0.501359 43.310484 0.754076 43.452495 1.259511 43.545237 L 23.494565 45.487021 C 23.494565 45.495716 23.661685 45.498614 24 45.498614 C 24.338315 45.498614 24.505435 45.495716 24.505435 45.487021 L 46.740489 43.545237 C 47.245924 43.452495 47.498641 43.310484 47.498641 43.125 C 47.498641 29.709299 47.498641 16.290701 47.498641 2.875 C 47.498641 2.689516 47.245924 2.547505 46.740489 2.454763 L 24.505435 0.512979 C 24.505435 0.504284 24.338315 0.501386 24 0.501386 Z M 24 0.501386 " transform="matrix(0.958333,0,0,1.347826,0,0)"/>
</g>
</svg>
